public/assets/Icons/machete.svg

<svg width="201.38" height="201.38" xmlns="http://www.w3.org/2000/svg">

 <g>
  <title>background</title>
  <rect fill="none" id="canvas_background" height="402" width="582" y="-1" x="-1"/>
 </g>
 <g>
  <title>Layer 1</title>
  <path fill="#def0ac" id="svg_1" d="m13.686,201.38c-2.625,0 -5.251,-0.999 -7.25,-2.998l-0.118,-0.118c-3.998,-3.998 -3.998,-10.504 0,-14.502l183.179,-183.178c0.463,-0.463 1.126,-0.665 1.767,-0.555c0.645,0.115 1.191,0.539 1.465,1.134c0.609,1.324 14.687,32.698 -5.542,54.153c-19.367,20.54 -119.865,111.669 -120.879,112.587c-0.79,0.717 -2.002,0.688 -2.757,-0.067l-6.034,-6.034l-36.58,36.581c-1.999,1.998 -4.625,2.997 -7.251,2.997zm32.04,-51.37l-36.58,36.58c-2.438,2.438 -2.438,6.407 0,8.846l0.118,0.118c2.438,2.438 6.406,2.437 8.845,0l36.58,-36.581l-8.963,-8.963zm14.174,8.518l5.133,5.132c12.32,-11.184 101.237,-91.99 119.243,-111.088c15.104,-16.02 8.712,-39.137 5.892,-47.003l-5.151,5.152c2.279,11.391 2.455,27.429 -9.299,39.894c-17.494,18.553 -103.159,96.42 -115.818,107.913zm-11.346,-11.346l8.515,8.514c12.123,-11.005 98.277,-89.305 115.738,-107.824c9.713,-10.301 10.34,-23.511 8.76,-33.701l-133.013,133.011z"/>
  <g id="svg_2"/>
  <g id="svg_3"/>
  <g id="svg_4"/>
  <g id="svg_5"/>
  <g id="svg_6"/>
  <g id="svg_7"/>
  <g id="svg_8"/>
  <g id="svg_9"/>
  <g id="svg_10"/>
  <g id="svg_11"/>
  <g id="svg_12"/>
  <g id="svg_13"/>
  <g id="svg_14"/>
  <g id="svg_15"/>
  <g id="svg_16"/>
 </g>
</svg>

<?xml version="1.0" encoding="iso-8859-1"?>
<!-- Generator: Adobe Illustrator 17.1.0, SVG Export Plug-In . SVG Version: 6.00 Build 0)  -->
<!DOCTYPE svg PUBLIC "-//W3C//DTD SVG 1.1//EN" "http://www.w3.org/Graphics/SVG/1.1/DTD/svg11.dtd">
<svg version="1.1" id="Capa_1" xmlns="http://www.w3.org/2000/svg" xmlns:xlink="http://www.w3.org/1999/xlink" x="0px" y="0px"
	 viewBox="0 0 201.38 201.38" style="enable-background:new 0 0 201.38 201.38;" xml:space="preserve">
<path d="M13.686,201.38c-2.625,0-5.251-0.999-7.25-2.998l-0.118-0.118c-3.998-3.998-3.998-10.504,0-14.502L189.497,0.584
	c0.463-0.463,1.126-0.665,1.767-0.555c0.645,0.115,1.191,0.539,1.465,1.134c0.609,1.324,14.687,32.698-5.542,54.153
	C167.82,75.856,67.322,166.985,66.308,167.903c-0.79,0.717-2.002,0.688-2.757-0.067l-6.034-6.034l-36.58,36.581
	C18.938,200.381,16.312,201.38,13.686,201.38z M45.726,150.01l-36.58,36.58c-2.438,2.438-2.438,6.407,0,8.846l0.118,0.118
	c2.438,2.438,6.406,2.437,8.845,0l36.58-36.581L45.726,150.01z M59.9,158.528l5.133,5.132
	C77.353,152.476,166.27,71.67,184.276,52.572c15.104-16.02,8.712-39.137,5.892-47.003l-5.151,5.152
	c2.279,11.391,2.455,27.429-9.299,39.894C158.224,69.168,72.559,147.035,59.9,158.528z M48.554,147.182l8.515,8.514
	c12.123-11.005,98.277-89.305,115.738-107.824c9.713-10.301,10.34-23.511,8.76-33.701L48.554,147.182z"/>
<g>
</g>
<g>
</g>
<g>
</g>
<g>
</g>
<g>
</g>
<g>
</g>
<g>
</g>
<g>
</g>
<g>
</g>
<g>
</g>
<g>
</g>
<g>
</g>
<g>
</g>
<g>
</g>
<g>
</g>
</svg>
